X:574
T:nde vas por agua
R:Xiraldilla
C:Tradicional
S:Msica Tradicional Asturiana, (C) Tello & Tito. Asturies, 2001.
S:http://pagina.de/MusTradAst <telloytito@asturies.org>
A:Asturies
Z:Asturias, canciones
M:2/4
L:1/8
Q:1/4=100
K:Em
|B2 Bc|B2 Ac|B3 c|B2 Ac|B2 z2|
G2 GB|A2 GF|E3 G|F2 ^DF|E2 z2|
G2 GB|A2 GF|E3 G|F2 ^DF|E2 z2||
